X:27
T:Sheaphards dance, The
M:4/4
L:1/4
Q:1/2=105
S:D.Wright, Extraordinary Collection, London 1713
Z:Pete Stewart, 2004 <www.hornpipemusic.co.uk>
K:A
Ac2B/A/ | e2f/g/a | ecfB | G2E2 | FDFB | GBea/g/ | f/e/d/c/ B/c/B/G/ | A2c2 :|
 |: ec/d/ec/d/ | ecAd/c/ | Bd/c/Bd/B/ | Ac2e/f/ |
ef/g/fg/a/ | gf/e/a>e | f/e/d/c/ B/c/B/A/ | A2c2 :|
 |: d/c/ AAd | c3B/A/ | BEEB | G2E2 | FDFB | GBea/g/ | f/e/d/c/ B/c/B/G/ | A2c2 :|
 |: aea2 | fdf2 | ecAc | GBGF/E/ | FDFB | G/A/Bea/g/ | f/e/d/c/ B/c/B/A/ | A2c2 :|

